src/assets/svg/heart.svg

<svg width="52" height="52" viewBox="0 0 52 52" fill="none" xmlns="http://www.w3.org/2000/svg">
<rect width="52" height="52" rx="26" fill="#FFDC01"/>
<path fill-rule="evenodd" clip-rule="evenodd" d="M20.7191 16.25C20.046 16.25 19.5003 16.7957 19.5003 17.4688C19.5003 18.1418 20.046 18.6875 20.7191 18.6875H24.7816C25.4547 18.6875 26.0003 18.1418 26.0003 17.4688C26.0003 16.7957 25.4547 16.25 24.7816 16.25H20.7191ZM31.7029 20.2374C32.3345 20.0047 32.6579 19.304 32.4252 18.6724C32.1925 18.0408 31.4918 17.7175 30.8603 17.9501L20.2978 21.8416C19.6662 22.0743 19.3428 22.7749 19.5755 23.4065C19.8082 24.0381 20.5088 24.3615 21.1404 24.1288L31.7029 20.2374ZM31.7029 30.1584C32.3345 29.9257 32.6579 29.2251 32.4252 28.5935C32.1925 27.9619 31.4918 27.6385 30.8603 27.8712L20.2978 31.7626C19.6662 31.9953 19.3428 32.696 19.5755 33.3276C19.8082 33.9592 20.5088 34.2825 21.1404 34.0499L31.7029 30.1584ZM27.2191 33.3125C26.546 33.3125 26.0003 33.8582 26.0003 34.5312C26.0003 35.2043 26.546 35.75 27.2191 35.75H31.2816C31.9547 35.75 32.5003 35.2043 32.5003 34.5312C32.5003 33.8582 31.9547 33.3125 31.2816 33.3125H27.2191ZM31.7191 25.1066C32.3473 24.865 32.6607 24.1598 32.4191 23.5316C32.1775 22.9033 31.4723 22.5899 30.8441 22.8316L20.2816 26.8941C19.6533 27.1357 19.3399 27.8409 19.5816 28.4691C19.8232 29.0973 20.5284 29.4107 21.1566 29.1691L31.7191 25.1066Z" fill="white"/>
</svg>

<svg width="52" height="52" fill="none" xmlns="http://www.w3.org/2000/svg"><rect width="52" height="52" rx="26" fill="#FFDC01"/><path fill-rule="evenodd" clip-rule="evenodd" d="M20.72 16.25a1.219 1.219 0 0 0 0 2.438h4.062a1.219 1.219 0 0 0 0-2.438h-4.063zm10.983 3.987a1.219 1.219 0 0 0-.843-2.287l-10.562 3.892a1.219 1.219 0 1 0 .842 2.287l10.563-3.892zm0 9.921a1.219 1.219 0 1 0-.843-2.287l-10.562 3.892a1.219 1.219 0 0 0 .842 2.287l10.563-3.892zm-4.484 3.154a1.219 1.219 0 0 0 0 2.438h4.063a1.219 1.219 0 0 0 0-2.438h-4.063zm4.5-8.205a1.219 1.219 0 0 0-.875-2.275l-10.562 4.062a1.219 1.219 0 1 0 .875 2.275l10.562-4.062z" fill="#fff"/></svg>
